X:1
T:The Spirit Is Waiting
T:The Spirit Is Waiting
T:James Ramsey Murray
T:Dwight Williams, 1896
T:Public Domain Courtesy of the Cyber Hymnal™
C:James Ramsey Murray
Z:Public Domain
Z:Courtesy of the Cyber Hymnal™
%%score ( 1 2 ) ( 3 4 )
L:1/8
Q:1/4=80
M:6/8
K:Bb
V:1 treble 
V:2 treble 
V:3 bass 
V:4 bass 
V:1
 [DF] | [EG][DF][B,D] [CF][CE][CE] | [EA][EG][CE] ([EG][DF])F | [EF][EG][FA] [FB][Fc][Fd] | %4
w: 1.~The|Spir- it is wait- ing, in-|vite Him to- day, * To|en- ter thy heart and a-|
w: 2.~Se-|cure in His keep- ing thy|heart shall re- joice; * He|calls thee and woos thee, Oh,|
w: 3.~The|joy of the morn- ing re-|ceive in thy heart, * He|long- eth to en- ter and|
 [=Ed][Ec][EB] [Fc]2 [_EF] | [EG][DF][B,D] [CF][CE][CE] | [EA][EG][CE] ([EG][DF])F | %7
w: bide there al- way; Be-|lieve Him, re- ceive Him, thy|dear lov- ing guest, * Thy|
w: make Him thy choice; Be-|lieve Him, re- ceive Him, thy|trea- sure loved best, * The|
w: no more de- part; He|knows thee and loves thee, oh,|leave thy re- quest, * And|
 [EF][EG][FA] [FB][Fc][Fd] | [Fd][DB][Ec] [DB]2 ||"^Refrain" [FB] | [Ge][EG][EG] [EG][DF][DF] | %11
w: prom- ise and por- tion, thy|bless- ing and rest.|||
w: Com- fort- er wait- eth, thy|bless- ing and rest.|The|Spir- it is wait- ing, the|
w: wait for His full- ness of|bless- ing and rest.|||
 [FB][FA][FB] [Fd][Fc][Fc] | [Fd][Fd][_Af] [Ge][EG][Ge] | [Fd][DB][Ec] !fermata![DB]2 |] %14
w: |||
w: Spir- it is wait- ing, Re-|ceive Him, be- lieve Him, thy|dear lov- ing guest.|
w: |||
V:2
 x | x6 | x5 F | x6 | x6 | x6 | x5 F | x6 | x5 || x | x6 | x6 | x6 | x5 |] %14
V:3
 [B,,B,] | [B,,B,][B,,B,][B,,F,] [F,A,][F,A,][F,A,] | [F,C][F,A,][F,A,] [B,,B,]2 [D,B,] | %3
 [F,A,][F,B,][F,C] [D,B,][C,A,][B,,B,] | [C,B,][C,G,][C,C] [F,A,]2 [F,A,] | %5
 [B,,B,][B,,B,][B,,F,] [F,A,][F,A,][F,A,] | [F,C][F,A,][F,A,] [B,,B,]2 [D,B,] | %7
 [F,A,][F,B,][E,C] [D,B,][C,A,][C,B,] | [F,B,][F,B,][F,A,] [B,,B,]2 || [D,B,] | %10
 [E,B,][E,B,][E,B,] [B,,B,][B,,B,][B,,B,] | [D,B,][C,E][B,,D] [F,B,][F,A,][F,A,] | %12
 B,B,B, [E,B,][E,B,][E,B,] | [F,B,][F,B,][F,A,] !fermata![B,,B,]2 |] %14
V:4
 x | x6 | x6 | x6 | x6 | x6 | x6 | x6 | x5 || x | x6 | x6 | B,B,B, x3 | x5 |] %14

